X:1
T:Swainsthorpe, SM
T:Josiah Booth (1852-1929), before 1909
T:Swainsthorpe, SM
T:Public Domain
C:Josiah Booth (1852-1929), before 1909
Z:Public Domain
%%score ( 1 2 ) ( 3 4 )
L:1/8
M:4/4
K:Eb
V:1 treble 
V:2 treble 
V:3 bass 
V:4 bass 
V:1
 E2 | E2 [EG]2 [EF]2 [EA]2 | (A4 G2) F2 | [EG]2 [EB]2 [EA]2 [Fc]2 | (F4 E2) [AB]2 | %5
 [Ge]3 [Ge] [EG]2 [EA]2 | [EB]2 [Ec]2 E2 [EF]2 | [EG]3 [EG] [EA]2 [DF]2 | E6 |] %9
V:2
 E2 | E2 x6 | E6 F2 | x8 | B6 x2 | x8 | x4 E2 x2 | x8 | E6 |] %9
V:3
 [E,G,]2 | G,2 z E, [E,A,]2 [E,C]2 | C4 B,2 [D,B,]2 | [E,B,]2 [G,B,]2 [F,E]2 [A,D]2 | %4
 ([A,D]4 [G,E]2) [F,D]2 | B,2 z E, [D,B,]2 [C,A,]2 | [B,,G,]2 [A,,A,]2 [G,,B,]2 [A,,C]2 | %7
 [B,,B,]3 [B,,B,] [B,,F,]2 [B,,A,]2 | [E,G,]6 |] %9
V:4
 x2 | E,3 B,2 x3 | E,6 x2 | x8 | x8 | E,3 B,2 x3 | x8 | x8 | x6 |] %9

